X:21025 
T:CAT AND THE BACON, The  
B:DMI.0308
Z:Nordberg/Black
N:DMI shows no C naturals but this sounds to me
very much like a D modal tune. To hear the source
version, replace G with D in the K: field.
R:jig
%Q:1/4=160
M:6/8
L:1/8
K:G
"D modal"
G|Add Add|efd c2A|Add Add|efd cAG|
Add Add|efd c2d|ecA G2E|FDD D2:|
g|aba gag|fed ecA|AcA c2d|cAd cAG|
Add Add|efd c2d|eaa gec|edd d2:|

%%%

